packages/sources/icons/src/vitamix/earth-fill.svg

<svg width="16" height="16" viewBox="0 0 16 16" xmlns="http://www.w3.org/2000/svg"><path d="M8.00004 14.6666C4.31804 14.6666 1.33337 11.682 1.33337 7.99998C1.33337 4.31798 4.31804 1.33331 8.00004 1.33331C11.682 1.33331 14.6667 4.31798 14.6667 7.99998C14.6667 11.682 11.682 14.6666 8.00004 14.6666ZM12.2367 10.6346V10.5646C12.2367 9.94998 12.2367 9.66931 11.802 9.42065C11.6623 9.34144 11.5188 9.26913 11.372 9.20398C11.1274 9.09265 10.9654 9.01998 10.7467 8.69998C10.7206 8.66198 10.6948 8.62376 10.6694 8.58531C10.4394 8.23531 10.2734 7.98331 9.64137 8.08331C8.39804 8.28065 8.30604 8.49931 8.25137 8.86865L8.24271 8.92931C8.16204 9.46931 8.14737 9.65065 8.37271 9.88731C9.21604 10.772 9.72137 11.41 9.87471 11.7833C9.94937 11.9653 10.1414 12.5166 10.0094 13.062C10.8186 12.7397 11.5389 12.2283 12.11 11.5706C12.1834 11.3213 12.2367 11.0106 12.2367 10.6346ZM8.00004 2.55531C6.45537 2.55531 5.06004 3.19931 4.06937 4.23265C4.18737 4.31465 4.29004 4.42998 4.36071 4.58865C4.49671 4.89331 4.49671 5.20731 4.49671 5.48531C4.49671 5.70398 4.49671 5.91198 4.56671 6.06198C4.66271 6.26731 5.07737 6.35531 5.44337 6.43131C5.57471 6.45931 5.70937 6.48731 5.83204 6.52131C6.16937 6.61465 6.43071 6.91798 6.63937 7.16131C6.72604 7.26198 6.85471 7.41065 6.91937 7.44798C6.95271 7.42398 7.06004 7.30731 7.11271 7.11598C7.15404 6.96931 7.14204 6.83998 7.08271 6.76931C6.70937 6.32931 6.73004 5.48265 6.84537 5.16998C7.02671 4.67731 7.59337 4.71398 8.00804 4.74065C8.16271 4.75065 8.30804 4.76065 8.41737 4.74665C8.83204 4.69465 8.96004 4.06331 9.05004 3.93998C9.24471 3.67331 9.84071 3.27131 10.21 3.02331C9.51437 2.71397 8.76138 2.55452 8.00004 2.55531Z"/></svg>

<svg width="16" height="16" xmlns="http://www.w3.org/2000/svg"><path d="M8 14.667A6.667 6.667 0 1 1 8 1.334a6.667 6.667 0 0 1 0 13.333Zm4.237-4.032v-.07c0-.615 0-.896-.435-1.144a4.912 4.912 0 0 0-.43-.217c-.245-.111-.407-.184-.625-.504a7.663 7.663 0 0 1-.078-.115c-.23-.35-.396-.602-1.028-.502-1.243.198-1.335.416-1.39.786l-.008.06c-.081.54-.096.722.13.958.843.885 1.348 1.523 1.502 1.896.074.182.266.734.134 1.279a5.456 5.456 0 0 0 2.101-1.491c.073-.25.127-.56.127-.936ZM8 2.555a5.43 5.43 0 0 0-3.93 1.678.84.84 0 0 1 .29.356c.137.304.137.618.137.896 0 .219 0 .427.07.577.096.205.51.293.876.37.132.027.266.055.389.09.337.093.599.396.807.64.087.1.216.249.28.286a.678.678 0 0 0 .194-.332c.041-.147.029-.276-.03-.347-.374-.44-.353-1.286-.238-1.599.182-.493.748-.456 1.163-.43.155.01.3.02.41.007.414-.052.542-.684.632-.807.195-.267.79-.669 1.16-.917A5.425 5.425 0 0 0 8 2.555Z"/></svg>
